X:1549
T:Blackbird
M:2/4
L:1/8
K:D Mixolydian
dc|BGBd|c2B2|AGFG|ABcA|d^cde|d=cAF|GAGF|D2DE|!
FEFG|A2fe|dcde|dcAF|GAGF|D2D2|D2:|!
de|fede|f2g2|abag|fgaf|g2gf|gbaf|gagf|d2de|!
fedf|f2g2|abag|fgaf|gagf|d2d2|!
defg|a2af|g2ge|f2fe|dcAG|ABcd|efge|a2a2|!
ABAG|FGAB|cBce|dcAF|GAGF|D2D2|D2:|!


